frontend/public/svg/interface/delete.svg

<svg width="120" height="141" viewBox="0 0 120 141" fill="none" xmlns="http://www.w3.org/2000/svg">
<g clip-path="url(#clip0)">
<path d="M11.5444 32.2823C9.35715 31.9305 7.54822 31.7222 5.77811 31.3361C2.60909 30.6453 0.988478 29.1086 0.949674 26.938C0.909576 24.6587 2.59479 22.7092 5.87569 22.292C10.5613 21.6963 15.3053 21.5295 20.0298 21.2921C22.5844 21.1628 25.1505 21.2695 28.108 21.2695C27.6792 19.2916 27.3722 17.7509 27.0087 16.2245C26.2429 13.1665 26.65 9.93253 28.1496 7.15974C30.1545 3.31135 33.2097 0.966791 37.5694 0.821263C45.5316 0.555646 53.4969 0.406041 61.4656 0.372408C66.7407 0.347184 72.0174 0.592906 77.2929 0.718385C78.0463 0.736495 78.8024 0.733267 79.5532 0.788891C84.9341 1.18602 88.3773 3.94844 89.6146 9.22106C90.1746 11.6084 90.2464 14.1134 90.4974 16.5699C90.6267 17.8376 90.6642 19.1143 90.7561 20.58C91.624 20.7109 92.499 20.7908 93.3766 20.8193C99.1889 20.655 104.999 20.4131 110.812 20.2863C112.309 20.2218 113.808 20.3725 115.263 20.734C116.431 21.0072 117.48 21.649 118.255 22.5645C119.03 23.48 119.49 24.6206 119.566 25.8177C119.767 27.0519 119.583 28.318 119.038 29.4433C118.493 30.5687 117.614 31.4986 116.521 32.1065C115.619 32.6562 114.629 33.0624 113.507 33.6199C113.507 36.7542 113.4 39.8628 113.525 42.9615C114.262 61.3478 115.277 79.7315 114.594 98.1391C114.347 104.796 113.896 111.473 112.986 118.065C112.481 121.727 111.005 125.296 109.663 128.789C109.028 130.464 108.025 131.975 106.727 133.211C105.431 134.447 103.872 135.375 102.168 135.928C99.0207 137.007 95.789 137.824 92.5068 138.369C89.515 138.752 86.5044 138.965 83.4893 139.006C71.7672 139.589 60.0488 140.279 48.3201 140.659C43.3757 140.869 38.4223 140.655 33.5143 140.02C20.8881 138.243 14.0254 131.285 12.027 118.648C11.4349 115.148 11.1056 111.607 11.042 108.058C10.9084 87.7206 10.86 67.383 10.8971 47.0453C10.9036 42.2177 11.309 37.3887 11.5444 32.2823ZM21.2127 33.0682C21.7948 43.107 22.226 92.2559 23.3888 107.055C23.7316 111.419 24.7367 115.741 25.5968 120.052C26.4544 124.348 29.3576 126.846 33.5194 127.519C38.1759 128.271 42.9121 128.996 47.6074 128.961C59.3399 128.874 71.0738 128.47 82.7966 127.939C87.285 127.736 91.7507 126.893 96.212 126.238C97.0249 126.136 97.7855 125.78 98.3837 125.22C98.9826 124.66 99.3887 123.925 99.5452 123.121C100.163 120.625 100.962 118.14 101.257 115.602C102.95 101.021 102.602 86.3863 102.154 71.7566C101.802 60.2522 101.392 48.7496 101.003 37.2464C100.967 36.2116 100.896 35.1728 100.848 34.268C73.4015 33.8676 48.8905 33.4724 21.2146 33.0682H21.2127ZM38.4805 21.0379C52.0096 21.5275 65.2704 21.5062 78.6168 20.8833V11.9383C65.1229 11.4855 51.879 10.9991 38.4805 12.3115V21.0379Z" fill="black"/>
<path d="M82.2128 77.7577C82.0718 70.8105 81.7413 63.7697 81.4212 56.9597L81.4147 56.8303C81.2996 54.3613 81.1871 51.8924 81.0758 49.4233C81.0267 48.5606 80.8643 47.7079 80.594 46.8872C80.0009 45.0115 78.6628 44.0226 76.9309 44.1862C75.8819 44.2729 74.0749 44.8129 73.7534 47.4479C73.7017 47.922 73.6758 48.3986 73.6758 48.8754C73.5724 57.4389 72.7905 85.75 72.7827 86.0385C72.6365 92.8447 72.4852 99.8798 72.3817 106.859C72.328 108.781 72.5014 110.703 72.8991 112.583C73.0912 113.579 73.6286 114.476 74.4164 115.115C75.2047 115.754 76.1929 116.094 77.207 116.076C77.326 116.076 77.4463 116.072 77.5673 116.063C78.5691 116.035 79.5282 115.652 80.2739 114.982C81.0189 114.312 81.502 113.4 81.6365 112.406C81.9916 110.339 82.1863 108.247 82.2186 106.15L82.2535 101.336C82.3105 93.6124 82.3725 85.6265 82.2128 77.7577Z" fill="black"/>
<path d="M47.601 44.6397H47.5978C46.9525 44.6372 46.3163 44.7915 45.7438 45.0896C45.1714 45.3876 44.6799 45.8204 44.3118 46.3504C43.6882 47.4661 43.3364 48.7129 43.2848 49.9899C43.1749 51.7201 43.0595 53.4495 42.9418 55.2211C42.5376 61.3145 42.1187 67.6158 41.9389 73.8347C41.6802 82.6789 41.5929 91.666 41.5056 100.358C41.4794 103.018 41.4512 105.678 41.421 108.338C41.4195 109.427 41.5717 110.511 41.8736 111.557C42.5791 114.058 44.2769 115.611 46.3038 115.611H46.3685C48.4918 115.575 50.1886 113.898 50.6898 111.339C50.9369 109.985 51.0414 108.609 51.0012 107.234C50.8886 100.171 50.7506 93.1097 50.62 86.4012L50.5016 80.3356L50.6371 73.1316C50.7845 65.3281 50.9234 57.9518 51.0353 50.539C51.1016 49.296 50.9176 48.0524 50.494 46.882C50.2342 46.2985 49.8341 45.7884 49.3294 45.3972C48.8246 45.0059 48.2308 44.7458 47.601 44.6397Z" fill="black"/>
</g>
<defs>
<clipPath id="clip0">
<rect width="119" height="141" fill="white" transform="translate(0.777344)"/>
</clipPath>
</defs>
</svg>

<svg xmlns="http://www.w3.org/2000/svg" width="120" height="141" fill="none" viewBox="0 0 120 141"><g fill="#000" clip-path="url(#a)"><path d="M11.544 32.282c-2.187-.351-3.996-.56-5.766-.946C2.61 30.646.988 29.11.95 26.938c-.04-2.28 1.645-4.229 4.926-4.646 4.685-.596 9.43-.763 14.154-1 2.554-.13 5.12-.023 8.078-.023-.429-1.977-.736-3.518-1.1-5.044A12.6 12.6 0 0 1 28.15 7.16C30.155 3.31 33.21.967 37.57.82A821 821 0 0 1 61.465.372c5.275-.025 10.551.22 15.827.346.753.018 1.51.015 2.26.07 5.381.398 8.824 3.16 10.062 8.433.56 2.387.631 4.892.882 7.349.13 1.268.167 2.544.26 4.01q1.302.195 2.62.24c5.812-.165 11.622-.407 17.435-.534a15.7 15.7 0 0 1 4.451.448 5.59 5.59 0 0 1 4.303 5.084 6.08 6.08 0 0 1-3.045 6.288c-.902.55-1.892.956-3.014 1.514 0 3.134-.107 6.243.018 9.342.737 18.386 1.752 36.77 1.069 55.177-.247 6.657-.698 13.334-1.608 19.926-.505 3.662-1.981 7.231-3.323 10.724a11.96 11.96 0 0 1-7.495 7.139 60 60 0 0 1-9.661 2.441 80 80 0 0 1-9.018.637c-11.722.583-23.44 1.273-35.169 1.653a86.7 86.7 0 0 1-14.806-.639c-12.626-1.777-19.489-8.735-21.487-21.372a71 71 0 0 1-.985-10.59 7269 7269 0 0 1-.145-61.013c.007-4.827.412-9.656.647-14.763m9.669.786c.582 10.039 1.013 59.188 2.176 73.987.343 4.364 1.348 8.686 2.208 12.997.857 4.296 3.76 6.794 7.922 7.467 4.657.752 9.393 1.477 14.088 1.442 11.733-.087 23.467-.491 35.19-1.022 4.488-.203 8.954-1.046 13.415-1.701a3.89 3.89 0 0 0 3.333-3.117c.618-2.496 1.417-4.981 1.712-7.519 1.693-14.581 1.345-29.216.897-43.845-.352-11.505-.762-23.007-1.151-34.51-.036-1.035-.107-2.074-.155-2.979-27.446-.4-51.957-.796-79.633-1.2zm17.268-12.03c13.529.49 26.79.468 40.136-.155v-8.945c-13.494-.453-26.738-.939-40.137.373z"/><path d="M82.213 77.758c-.141-6.947-.472-13.988-.792-20.798l-.006-.13q-.172-3.703-.34-7.407a10 10 0 0 0-.481-2.536c-.593-1.876-1.931-2.864-3.663-2.7-1.05.086-2.856.626-3.178 3.26q-.077.713-.077 1.428c-.104 8.564-.886 36.875-.893 37.164-.147 6.806-.298 13.84-.401 20.82-.054 1.922.12 3.844.517 5.724a4.31 4.31 0 0 0 4.308 3.493q.18 0 .36-.013a4.226 4.226 0 0 0 4.07-3.657 41 41 0 0 0 .582-6.256l.035-4.814c.056-7.724.118-15.71-.041-23.578M47.601 44.64h-.003a3.98 3.98 0 0 0-3.286 1.71 8.1 8.1 0 0 0-1.027 3.64c-.11 1.73-.225 3.46-.343 5.231-.404 6.094-.823 12.395-1.003 18.614-.259 8.844-.346 17.831-.433 26.523q-.04 3.99-.085 7.98c-.002 1.089.15 2.173.453 3.219.705 2.501 2.403 4.054 4.43 4.054h.064c2.124-.036 3.82-1.713 4.322-4.272.247-1.354.351-2.73.311-4.105-.112-7.063-.25-14.124-.381-20.833l-.118-6.065.135-7.204c.148-7.804.286-15.18.398-22.593a9.3 9.3 0 0 0-.541-3.657 3.87 3.87 0 0 0-2.893-2.242"/></g><defs><clipPath id="a"><path fill="#fff" d="M.777 0h119v141h-119z"/></clipPath></defs></svg>
